!!!!SEGMENT: pl-sa--129-a-iii-29--002_graun-carl-heinrich--in-te-credo-sponse.krn
!!!cenid: 17xx:620
!!!COM: Graun, Carl Heinrich
!!!COM-rismid: pe30001351
!!!CDT: 1704/05/07-1759/08/08
!!!CNT: German
!!!OTL: In te credo sponse
!!!PDT:
!!!AGN: Sacred
!!!SMS-siglum: PL-SA
!!!SMS-shelfmark: 129/A III 29
!!!SMS-shelfwork: 002 W
!!!SMS-variant:
!!!SMS-altvar:
!!!NIFC-rismid: 1001041695
!!!URL-scan: http://bc.bdsandomierz.pl/dlibra/publication/1486/edition/1454/content
!!!ONB-nifc:
**kern	**dynam	**kern	**dynam	**kern	**dynam	**kern	**text	**kern	**text
*part5	*part5	*part4	*part4	*part3	*part3	*part2	*part2	*part1	*part1
*	*	*group2	*	*group2	*	*group1	*	*group1	*
*staff5	*	*staff4	*	*staff3	*	*staff2	*staff2	*staff1	*staff1
*Iempty	*	*Ivioln	*	*Ivioln	*	*Ivox	*	*Ivox	*
*I"Fundamento	*	*I"Violino Secundo	*	*I"Violino Primo.	*	*I"Canto Secundo	*	*I"Canto Primo	*
*I'C-b.	*	*I'Vn II	*	*I'Vn I	*	*I'C.II	*	*I'C. I	*
*clefF4	*	*clefG2	*	*clefG2	*	*clefC1	*	*clefC1	*
*Trd0c0	*	*	*	*	*	*	*	*	*
*k[f#]	*	*k[f#]	*	*k[f#]	*	*k[f#]	*	*k[f#]	*
*G:	*	*G:	*	*G:	*	*G:	*	*G:	*
*M2/4	*	*M2/4	*	*M2/4	*	*M2/4	*	*M2/4	*
=1	=1	=1	=1	=1	=1	=1	=1	=1	=1
!	!	!LO:TX:a:t=P:problem:inne metrum	!	!	!	!	!	!	!
!LO:TX:a:t=P:problem:caudy z prawej strony i pośrodku	!	!LO:TX:a:t=P:problem:caudy z prawej strony i pośrodku	!	!LO:TX:a:t=P:problem:caudy z prawej strony i pośrodku	!	!LO:TX:a:t=P:problem:caudy z prawej strony i pośrodku	!	!LO:TX:a:t=P:problem:caudy z prawej strony i pośrodku	!
!LO:TX:a:t=Allegretto	!	!LO:TX:a:t=Allgretto	!	!LO:TX:a:t=Allegretto	!	!LO:TX:a:t=Allegretto	!	!LO:TX:a:t=Allegretto	!
!LO:TX:a:B:t=II	!	!LO:TX:a:B:t=II	!	!LO:TX:a:B:t=II	!	!LO:TX:a:B:t=II	!	!LO:TX:a:B:t=II	!
!	!	!	!	!	!	!LO:N:vis=00	!	!LO:N:vis=00	!
4G\	.	(8b/	.	8dd\	.	0r	.	0r	.
.	.	4g/	.	4b\	.	.	.	.	.
4G\	.	.	.	.	.	.	.	.	.
.	.	8a/)	.	8cc\	.	.	.	.	.
=2	=2	=2	=2	=2	=2	=2	=2	=2	=2
4G\	.	8b\	.	(16dd\LL	.	.	.	.	.
.	.	.	.	16ff#\JJ)	.	.	.	.	.
.	.	4b\	.	4gg\	.	.	.	.	.
4G\	.	.	.	.	.	.	.	.	.
.	.	8cc\	.	8ee\	.	.	.	.	.
=3	=3	=3	=3	=3	=3	=3	=3	=3	=3
4G\	.	8b\	.	8dd\	.	.	.	.	.
.	.	4g/	.	4b\	.	.	.	.	.
4G\	.	.	.	.	.	.	.	.	.
.	.	8a/	.	8cc\	.	.	.	.	.
=4	=4	=4	=4	=4	=4	=4	=4	=4	=4
4G\	.	(8b\	.	(16dd\LL	.	.	.	.	.
.	.	.	.	16ff#\JJ)	.	.	.	.	.
.	.	4b\	.	4gg\	.	.	.	.	.
4G\	.	.	.	.	.	.	.	.	.
.	.	8cc\)	.	8ee\	.	.	.	.	.
=5	=5	=5	=5	=5	=5	=5	=5	=5	=5
!	!	!	!	!	!	!LO:N:vis=00	!	!LO:N:vis=00	!
4G\	.	8.b/L	.	8dd\L	.	0r	.	0r	.
!	!	!	!	!LO:TUP:a:problem:klamra łukowa	!	!	!	!	!
.	.	.	.	24b\L	.	.	.	.	.
.	.	.	.	24cc\	.	.	.	.	.
*	*	*Xtuplet	*	*	*	*	*	*	*
.	.	48g/LL	.	.	.	.	.	.	.
.	.	48a/	.	24dd\JJ	.	.	.	.	.
.	.	48b/JJJ	.	.	.	.	.	.	.
4D\	.	4a/	.	4cc\	.	.	.	.	.
=6	=6	=6	=6	=6	=6	=6	=6	=6	=6
4GG/	.	8g/L|	.	8b\L	.	.	.	.	.
*	*	*tuplet	*	*	*	*	*	*	*
!	!	!LO:TUP:b:problem:klamra łukowa	!	!LO:TUP:a:problem:klamra łukowa	!	!	!	!	!
.	.	24g/L	.	24b\L	.	.	.	.	.
.	.	24a/	.	24cc\	.	.	.	.	.
.	.	24b/JJ	.	24dd\JJ	.	.	.	.	.
4r	.	8b\L|	.	8dd\L	.	.	.	.	.
!	!	!LO:TUP:a:problem:klamra łukowa	!	!LO:TUP:a:problem:klamra łukowa	!	!	!	!	!
.	.	24b\L	.	24dd\L	.	.	.	.	.
.	.	24cc\	.	24ee\	.	.	.	.	.
.	.	24dd\JJ	.	24ffn\JJ	.	.	.	.	.
=7	=7	=7	=7	=7	=7	=7	=7	=7	=7
4c\	.	8cc\	.	(8ee\	.	.	.	.	.
.	.	4ff#X\	.	4ff#X\	.	.	.	.	.
4c\	.	.	.	.	.	.	.	.	.
.	.	8gg\	.	8gg\)	.	.	.	.	.
!	!	!	!	!LO:LB:g=original	!	!	!	!	!
=8	=8	=8	=8	=8	=8	=8	=8	=8	=8
4B\	.	(8dd\	.	(8dd\	.	.	.	.	.
.	.	4ff#\	.	4ff#\	.	.	.	.	.
4B\	.	.	.	.	.	.	.	.	.
.	.	8gg\)	.	8gg\)	.	.	.	.	.
=9	=9	=9	=9	=9	=9	=9	=9	=9	=9
!	!	!	!	!	!	!LO:N:vis=00	!	!LO:N:vis=00	!
4A\	.	(16aa\LL	.	16aa\LL	.	0r	.	0r	.
.	.	16ff#\JJ	.	16ff#\JJ	.	.	.	.	.
.	.	(4cc\)	.	4cc\	.	.	.	.	.
4G\	.	.	.	.	.	.	.	.	.
.	.	8b\)	.	8b\	.	.	.	.	.
=10	=10	=10	=10	=10	=10	=10	=10	=10	=10
8D\L	.	16.a/LL	.	16.a\LL	.	.	.	.	.
.	.	32a/JK	.	32a\JK	.	.	.	.	.
8F#\	.	8a/J	.	8a\J	.	.	.	.	.
.	.	.	.	16qqa/	.	.	.	.	.
!	!	!LO:LB:g=original	!	!	!	!	!	!	!
8G\	.	16.b\LL	.	16.b\LL	.	.	.	.	.
.	.	32cc#X\JK	.	32cc#X\JK	.	.	.	.	.
8E\J	.	8dd\J	.	8cc#t\J	.	.	.	.	.
=11	=11	=11	=11	=11	=11	=11	=11	=11	=11
!	!	!	!	!LO:TX:a:t=P:problem:mixed beam	!	!	!	!	!
8D\L	.	16.f#/LL	.	16.ddT\LL	.	.	.	.	.
.	.	32d/JK	.	32d/JK	.	.	.	.	.
8D\	.	8dT/J	.	8d/J	.	.	.	.	.
8E\	.	16.e/LL	.	16.eT/LL	.	.	.	.	.
.	.	32f#/JK	.	32f#/JK	.	.	.	.	.
8F#\J	.	8f#t/J	.	8f#/J	.	.	.	.	.
=12	=12	=12	=12	=12	=12	=12	=12	=12	=12
8G\L	.	16.a/LL	.	16.a\LL	.	.	.	.	.
.	.	32g/JK	.	32dd\JK	.	.	.	.	.
8B\	.	8g/J	.	8ddT\J	.	.	.	.	.
8c\	.	16.g/LL	.	16.ee\LL	.	.	.	.	.
.	.	32g/JK	.	32ff#\JK	.	.	.	.	.
8A\J	.	8cc/J	.	8ff#t\J	.	.	.	.	.
!LO:LB:g=original	!	!	!	!	!	!	!	!	!
=13	=13	=13	=13	=13	=13	=13	=13	=13	=13
!LO:TX:a:t=P:problem:mixed beam	!	!	!	!LO:TX:a:t=P:problem:mixed beam	!LO:N:vis=00	!	!LO:N:vis=00	!	!
8G\L	.	16.b/LL	.	16.gg\LL	.	0r	.	0r	.
.	.	32G/JK	.	32G/JK	.	.	.	.	.
8GG/	.	8GT/J	.	8GT/J	.	.	.	.	.
8AA/	.	16.A/LL	.	16.A/LL	.	.	.	.	.
.	.	32B/JK	.	32B/JK	.	.	.	.	.
8BB/J	.	8Bt/J	.	8Bt/J	.	.	.	.	.
=14	=14	=14	=14	=14	=14	=14	=14	=14	=14
4C/	.	4c/	.	4c/	.	.	.	.	.
8r	.	8aa\L	.	8aa\L	.	.	.	.	.
!	!LO:DY:b	!	!	!	!	!	!	!	!
8c\	p	8cc\J	.	16.bb\L	.	.	.	.	.
.	.	.	.	32ccc\JJk	.	.	.	.	.
=15	=15	=15	=15	=15	=15	=15	=15	=15	=15
4d\	.	8.bb\L	.	8.bb\L	.	.	.	.	.
.	.	32ccc\LL	.	32ccc\LL	.	.	.	.	.
.	.	32ddd\JJJ	.	32ddd\JJJ	.	.	.	.	.
!	!	!LO:N:vis=8	!	!	!	!	!	!	!
4D\	.	8.ff#\L	.	8.ff#\L	.	.	.	.	.
.	.	32gg\LL	.	32gg\LL	.	.	.	.	.
.	.	32aa\JJJ	.	32aa\JJJ	.	.	.	.	.
=16	=16	=16	=16	=16	=16	=16	=16	=16	=16
4E\	.	8gg\	.	8gg\	.	.	.	.	.
.	.	8r	.	8r	.	.	.	.	.
8r	.	8.a/L	.	8.a/L	.	.	.	.	.
8C/	.	.	.	.	.	.	.	.	.
.	.	32b/LL	.	32b/LL	.	.	.	.	.
.	.	32cc/JJJ	.	32cc/JJJ	.	.	.	.	.
!	!	!	!	!LO:LB:g=original	!	!	!	!	!
=17	=17	=17	=17	=17	=17	=17	=17	=17	=17
!	!	!LO:N:vis=8	!	!	!	!LO:N:vis=00	!	!LO:N:vis=00	!
4D\	.	8.b\L	.	8.b\L	.	0r	.	0r	.
.	.	32cc\LL	.	32cc\LL	.	.	.	.	.
.	.	32dd\JJJ	.	32dd\JJJ	.	.	.	.	.
4DD/	.	8.f#/L	.	8.f#/L	.	.	.	.	.
.	.	32g/LL	.	32g/LL	.	.	.	.	.
.	.	32a/JJJ	.	32a/JJJ	.	.	.	.	.
=18	=18	=18	=18	=18	=18	=18	=18	=18	=18
!	!LO:DY:t=Forte	!	!	!	!	!	!	!	!
8G\L	f	16g\LL	.	16.g\LL	.	.	.	.	.
.	.	16gg\J	.	.	.	.	.	.	.
.	.	.	.	32gg\JK	.	.	.	.	.
8F#\	.	8ggT\J	.	8gg\J	.	.	.	.	.
8E\	.	16.bb\LL	.	16.bb\LL	.	.	.	.	.
.	.	32gg\JK	.	32gg\JK	.	.	.	.	.
8D\J	.	8ggT\J	.	8gg\J	.	.	.	.	.
=19	=19	=19	=19	=19	=19	=19	=19	=19	=19
4C#X/	.	16.bb\LL	.	16.bb\LL	.	.	.	.	.
.	.	32gg\JK	.	32gg\JK	.	.	.	.	.
.	.	8ggT\J	.	8gg\J	.	.	.	.	.
4D/	.	16.bb\LL	.	16.bb\LL	.	.	.	.	.
.	.	32gg\JK	.	32gg\JK	.	.	.	.	.
.	.	8ggT\J	.	8gg\J	.	.	.	.	.
!	!	!LO:LB:g=original	!	!	!	!	!	!	!
=20	=20	=20	=20	=20	=20	=20	=20	=20	=20
*	*	*	*	*Xtuplet	*	*	*	*	*
!	!	!LO:TUP:a:problem:klamra łukowa	!	!	!	!	!	!	!
4D/	.	24b\LL	.	24b\LL	.	.	.	.	.
.	.	24dd\	.	24dd\	.	.	.	.	.
.	.	24cc\JJ	.	24cc\JJ	.	.	.	.	.
!	!	!LO:TUP:a:problem:klamra łukowa	!	!	!	!	!	!	!
.	.	24b\LL	.	24b\LL	.	.	.	.	.
.	.	24a\	.	24a\	.	.	.	.	.
.	.	24g\JJ	.	24g\JJ	.	.	.	.	.
4DD/	.	4a/	.	4a/	.	.	.	.	.
=21	=21	=21	=21	=21	=21	=21	=21	=21	=21
!LO:TX:b:t=21	!	!	!	!	!	!	!	!	!
4GG/	.	8g/L	.	8g/L	.	2r	.	2r	.
.	.	8d/J	.	8d/J	.	.	.	.	.
!LO:TX:a:t=[segno]:problem:segno na kresce taktowej	!	!LO:TX:a:t=[segno]:problem:segno na kresce taktowej	!	!LO:TX:a:t=[segno]:problem:segno na kresce taktowej	!	!LO:TX:a:t=[segno]:problem:segno na kresce taktowej	!	!	!
4r	.	4G/	.	4G/	.	.	.	.	.
=22||	=22||	=22||	=22||	=22||	=22||	=22||	=22||	=22||	=22||
!	!LO:DY:a	!	!	!	!LO:DY:a	!LO:TX:a:t=P:problem:caudy z prawej strony i pośrodku	!	!LO:TX:a:t=P:problem:caudy z prawej strony i pośrodku	!
4G\	p	8b/	.	8dd\	p	(8b\	In	(8dd\	In
.	.	4g/	.	4b\	.	4g\	.	4b\)	.
4G\	.	.	.	.	.	.	.	.	.
.	.	8a/	.	8cc\	.	8a\)	te	8cc\	te
=23	=23	=23	=23	=23	=23	=23	=23	=23	=23
4G\	.	(8b\	.	(16dd\LL	.	4.b\	Cre-	(16dd\LL	cre-
.	.	.	.	16ff#\JJ)	.	.	.	16ff#\JJ)	.
.	.	4b\)	.	4gg\	.	.	.	4gg\	.
4G\	.	.	.	.	.	.	.	.	.
.	.	8cc\	.	8ee\	.	8cc\	-do	8ee\	-do
=24	=24	=24	=24	=24	=24	=24	=24	=24	=24
4G\	.	(8b\	.	(8dd\	.	(8b\	spon-	(8dd\	spon-
.	.	4g/	.	4b\	.	4g\	.	4b\)	.
4G\	.	.	.	.	.	.	.	.	.
.	.	8a/)	.	8cc\)	.	8a\)	-se	8cc\	-se
=25	=25	=25	=25	=25	=25	=25	=25	=25	=25
4G\	.	8b\	.	(16dd\LL	.	4.b\	a-	(16dd\LL	a-
.	.	.	.	16ff#\JJ	.	.	.	16ff#\JJ)	.
.	.	4b\	.	4gg\)	.	.	.	4gg\	.
4G\	.	.	.	.	.	.	.	.	.
.	.	8cc\	.	8ee\	.	8cc\	.	8ee\	.
!LO:LB:g=original	!	!	!	!	!	!	!	!	!
=26	=26	=26	=26	=26	=26	=26	=26	=26	=26
4G\	.	8b/L	.	8.dd\L|	.	8b\L	.	8dd\L	.
*	*	*Xtuplet	*	*	*	*	*	*	*
!	!	!	!	!	!	!LO:TUP:a:problem:klamra łukowa	!	!LO:TUP:a:problem:klamra łukowa	!
.	.	24g/L	.	.	.	24g\L	-ma-	24b\L	-ma-
.	.	24a/	.	.	.	24a\	.	24cc\	.
.	.	.	.	48b\LL	.	.	.	.	.
.	.	24b/JJ	.	48cc\	.	24b\JJ	.	24dd\JJ	.
.	.	.	.	48dd\JJJ	.	.	.	.	.
4D\	.	4a/	.	4ccT\	.	4aT\	.	4cc\	.
=27	=27	=27	=27	=27	=27	=27	=27	=27	=27
!	!LO:DY:t=for&colon;	!	!	!	!	!	!	!	!
4GG/	f	8g/L	.	8b\L	.	4g\	-te	4b\	-te
!	!	!LO:TUP:a:problem:klamra łukowa	!	!	!	!	!	!	!
.	.	24g/L	.	24b\L	.	.	.	.	.
!	!	!	!LO:DY:b:t=forte	!	!	!	!	!	!
.	.	24a/	f	24cc\	.	.	.	.	.
!	!	!	!	!LO:SIC:znaczek wyglądający jak custos na końcu pięciolini:v	!	!	!	!	!
.	.	24b/JJ	.	24dd\JJ	.	.	.	.	.
!	!	!	!	!LO:LB:g=original	!	!	!	!	!
4r	.	8b\L|	.	8dd\L	.	4r	.	4r	.
*	*	*tuplet	*	*	*	*	*	*	*
!	!	!LO:TUP:a:problem:klamra łukowa	!	!	!	!	!	!	!
.	.	24b\L	.	24dd\L	.	.	.	.	.
.	.	24cc\	.	24ee\	.	.	.	.	.
.	.	24dd\JJ	.	24ffn\JJ	.	.	.	.	.
=28	=28	=28	=28	=28	=28	=28	=28	=28	=28
!	!LO:DY:b:t=piano	!	!LO:DY:a	!	!	!	!	!	!
4c\	p	4cc\	p	(8ee\	.	4cc\	Spe-	(8ee\	spe-
!	!	!	!	!	!LO:DY:b	!	!	!	!
.	.	.	.	4ff#X\	p	.	.	4ff#\	.
4c\	.	4a\	.	.	.	4a\	-ro	.	.
.	.	.	.	8gg\)	.	.	.	8gg\)	-ro
!	!	!	!	!	!	!	!	!LO:LB:g=original	!
=29	=29	=29	=29	=29	=29	=29	=29	=29	=29
4B\	.	4a/	.	(8dd\	.	4a\	a	(8dd\	a
.	.	.	.	4ff#\	.	.	.	4ff#\)	.
4B\	.	4g/	.	.	.	4g\	te	.	.
.	.	.	.	8gg\)	.	.	.	8gg\	te
!	!	!LO:LB:g=original	!	!	!	!	!	!	!
=30	=30	=30	=30	=30	=30	=30	=30	=30	=30
4A\	.	4.f#/	.	(16aa\LL	.	4.f#/	sor-	(16aa\LL	sor-
.	.	.	.	16ff#\JJ)	.	.	.	16ff#\JJ)	.
.	.	.	.	4cc\	.	.	.	4cc\	.
4G\	.	.	.	.	.	.	.	.	.
.	.	8g/	.	8b\	.	8g/	-tem	8b\	-tem
!	!	!	!	!	!	!LO:LB:g=original	!	!	!
=31	=31	=31	=31	=31	=31	=31	=31	=31	=31
!	!LO:DY:t=for	!	!	!	!	!	!	!	!
4D\	f	8g/L|	.	8b\L|	.	8g/	me-	8b\	me-
!	!	!LO:TUP:b:problem:klamra łukowa	!	!LO:TUP:a:problem:klamra łukowa	!	!	!	!	!
.	.	24f#/L	.	24a\L	.	8f#/	-am	8a\	-am
.	.	24g/	.	24b\	.	.	.	.	.
.	.	24a/JJ	.	24cc\JJ	.	.	.	.	.
4r	.	8a/L|	.	8cc\L|	.	4r	.	4r	.
!	!	!LO:TUP:b:problem:klamra łukowa	!	!LO:TUP:a:problem:klamra łukowa	!	!	!	!	!
.	.	24a/L	.	24cc\L	.	.	.	.	.
.	.	24b/	.	24dd\	.	.	.	.	.
.	.	24cc/JJ	.	24ee\JJ	.	.	.	.	.
=32	=32	=32	=32	=32	=32	=32	=32	=32	=32
!	!LO:DY:t=Pian&colon;	!	!	!	!	!	!	!	!
4C/	p	4cc\	.	(8ee\	.	4cc\	sor-	8ee\	a-
.	.	.	.	4ff#\	.	.	.	4ff#\	.
4C/	.	4a\	.	.	.	4a\	-tem	.	.
.	.	.	.	8gg\)	.	.	.	8gg\	-te
=33	=33	=33	=33	=33	=33	=33	=33	=33	=33
4BB/	.	4a/	.	(8dd\	.	(8a\L	a	(8dd\	sor-
.	.	.	.	4ff#\)	.	8g\J)	.	4ff#\)	.
4BB/	.	4g/	.	.	.	4g\	te	.	.
.	.	.	.	8gg\	.	.	.	8gg\	-tem
=34	=34	=34	=34	=34	=34	=34	=34	=34	=34
4AA/	.	4.f#/	.	(16aa\LL	.	4.f#/	be-	(16aa\LL	be-
.	.	.	.	16ff#\JJ)	.	.	.	16ff#\JJ)	.
.	.	.	.	8cc\|	.	.	.	4cc\	-a-
4GG/	.	.	.	8cc\L	.	.	.	.	.
.	.	8g/	.	8b\J	.	8g/	.	8b\	.
=35	=35	=35	=35	=35	=35	=35	=35	=35	=35
!	!LO:DY:a	!	!LO:DY:t=forte	!	!LO:DY:a	!	!	!	!
4D\	f	8g/L|	f	8b\L	f	8g/	-a-	8b\	-tam
!	!	!LO:TUP:b:problem:klamra łukowa	!	!	!	!	!	!	!
.	.	24d/L	.	24f#\L	.	8f#/	-tam	8a\	.
.	.	24e/	.	24g\	.	.	.	.	.
.	.	24f#/JJ	.	24a\JJ	.	.	.	.	.
4r	.	8f#/L|	.	8a\L	.	4r	.	4r	.
!	!	!LO:TUP:b:problem:klamra łukowa	!	!	!	!	!	!	!
.	.	24d/L	.	24b\L	.	.	.	.	.
.	.	24e/	.	24cc#X\	.	.	.	.	.
.	.	24f#/JJ	.	24dd\JJ	.	.	.	.	.
=36	=36	=36	=36	=36	=36	=36	=36	=36	=36
!	!LO:DY:t=Pia&colon;	!	!LO:DY:a	!	!LO:DY:t=Pian&colon;	!	!	!	!
4AA/	p	(16f#/LL	p	(16dd\LL	p	16f#/LL	so-	(16dd\LL	so-
.	.	16e/JJ	.	16cc#X\JJ	.	16e/JJ	.	16cc#X\JJ)	.
.	.	4e/)	.	4cc#\	.	4e/	.	4cc#\	.
4AA/	.	.	.	.	.	.	.	.	.
.	.	8g/	.	8ee\)	.	8g/	-lo	8ee\	-lo
!	!	!	!	!LO:LB:g=original	!	!	!	!LO:LB:g=original	!
=37	=37	=37	=37	=37	=37	=37	=37	=37	=37
4AA/	.	16g/LL	.	(16ee\LL	.	16g/LL	in	16ee\LL	in
.	.	16f#/JJ	.	16dd\JJ	.	16f#/JJ	.	16dd\JJ	.
.	.	4f#/	.	4dd\)	.	4f#/	.	4dd\	.
4AA/	.	.	.	.	.	.	.	.	.
.	.	8dd\	.	8ff#\	.	8dd\	te	8ff#\	te
=38	=38	=38	=38	=38	=38	=38	=38	=38	=38
4AA/	.	16dd\LL	.	16ff#\LL	.	16dd\LL	sa-	16ff#\LL	sa-
.	.	16cc#X\J	.	16ee\J	.	16cc#X\JJ	.	16ee\JJ	.
.	.	8cc#\J	.	8ee\J	.	8cc#\	-lus	8ee\	-lus
4AA/	.	8.cc#\L	.	8.ee\L	.	(8.cc#\L	.	(8.ee\L	.
.	.	32dd\LL	.	32ff#\LL	.	32dd\LL	me-	32ff#\LL	me-
.	.	32ee\JJJ	.	32gg\JJJ	.	32ee\JJJ)	.	32gg\JJJ)	.
=39	=39	=39	=39	=39	=39	=39	=39	=39	=39
!	!LO:DY:a	!	!LO:DY:b	!	!	!	!	!	!
4D\	f	8dd\L|	f	8ff#\L|	.	4dd\	-a	4ff#\	-a
*	*	*	*	*tuplet	*	*	*	*	*
!	!	!LO:TUP:a:problem:klamra łukowa	!	!LO:TUP:a:problem:klamra łukowa	!	!	!	!	!
.	.	24dd\L	.	24ff#\L	.	.	.	.	.
.	.	24ee\	.	24gg\	.	.	.	.	.
.	.	24ff#\JJ	.	24aa\JJ	.	.	.	.	.
!	!	!	!	!	!LO:DY:b:t=forte	!	!	!	!
4r	.	8ff#\L	.	8aa\L|	f	8r	.	8r	.
!	!	!LO:TUP:a:problem:klamra łukowa	!	!LO:TUP:a:problem:klamra łukowa	!	!	!	!	!
.	.	24dd\L	.	24bb\L	.	8dd\	in	8a\	in
.	.	24ee\	.	24ccc\	.	.	.	.	.
.	.	24ff#\JJ	.	24ddd\JJ	.	.	.	.	.
=40	=40	=40	=40	=40	=40	=40	=40	=40	=40
!	!LO:DY:t=Pian&colon;	!	!	!	!	!	!	!	!
4A\	p	(16ff#\LL	.	16ddd\LL	.	16dd\LL	.	8a\	.
.	.	16ee\JJ)	.	16ccc\JJ	.	16cc\JJ	.	.	.
!	!	!	!	!	!	!LO:LB:g=original	!	!	!
.	.	4ee\	.	4gg\	.	4ee\	.	4gg\	.
4A\	.	.	.	.	.	.	.	.	.
.	.	8dd\	.	8ff#\	.	8dd\	te	8ff#\	te
!	!	!LO:LB:g=original	!	!	!	!	!	!	!
=41	=41	=41	=41	=41	=41	=41	=41	=41	=41
4A\	.	(16dd\LL	.	(16ff#\LL	.	16dd\LL	so-	8ff#\	so-
.	.	16cc#X\JJ)	.	16ee\JJ)	.	16cc#X\JJ	.	.	.
.	.	4ee\	.	4gg\	.	8a\	-lo	8ee\	-lo
4A\	.	.	.	.	.	8r	.	8r	.
.	.	8dd\	.	8ff#\	.	8dd\	spon-	8a\	spon-
!LO:LB:g=original	!	!	!	!	!	!	!	!	!
=42	=42	=42	=42	=42	=42	=42	=42	=42	=42
4A\	.	(16dd\LL	.	(16ff#\LL	.	(16dd\LL	.	(8a\	.
.	.	16cc#X\JJ)	.	16ee\JJ	.	16cc#X\JJ)	.	.	.
.	.	4ee\	.	4gg\)	.	4ee\	-so	4gg\)	.
4A\	.	.	.	.	.	.	.	.	.
.	.	8dd\	.	8ff#\	.	8dd\	.	8ff#\	-so
=43	=43	=43	=43	=43	=43	=43	=43	=43	=43
!	!	!	!LO:DY:t=forte	!	!	!	!	!	!
4A\	.	16dd\LL	f	(16ff#\LL	.	16dd\LL	me-	8ff#\	me-
.	.	16cc#X\JJ	.	16ee\JJ	.	16cc#X\JJ	.	.	.
!	!	!	!	!	!LO:DY:b	!	!	!	!
.	.	4ee\	.	4gg\)	f	8a\	-o	8ee\	-o
4A\	.	.	.	.	.	4r	.	4r	.
.	.	8dd\	.	8ff#\	.	.	.	.	.
=44	=44	=44	=44	=44	=44	=44	=44	=44	=44
!	!	!	!LO:DY:a	!	!	!	!	!	!
4G\	.	8cc#X\	p	8ee\	.	4.ee\	sors	4cc#X\	sors
.	.	4cc#\	.	4ee\	.	.	.	.	.
4F#\	.	.	.	.	.	.	.	(8.cc#\L	sa-
.	.	8cc#\	.	8ee\	.	8ee\	sa-	.	.
.	.	.	.	.	.	.	.	32dd\LL	.
.	.	.	.	.	.	.	.	32ee\JJJ)	.
=45	=45	=45	=45	=45	=45	=45	=45	=45	=45
4F#\	.	4dd\	.	4ff#\	.	4dd\	-lu-	8cc\L	.
!	!	!	!	!	!	!	!	!LO:TUP:a:problem:klamra łukowa	!
.	.	.	.	.	.	.	.	24ff#\L	-lu-
.	.	.	.	.	.	.	.	24ee\	.
.	.	.	.	.	.	.	.	24dd\JJ	.
4F#\	.	4a\	.	8r	.	4a\	-tis	4dd\	-tis
*	*	*	*	*Xtuplet	*	*	*	*	*
!	!	!	!	!LO:N:vis=48	!	!	!	!	!
.	.	.	.	24ff#\LLLL	.	.	.	.	.
!	!	!	!	!LO:N:vis=48	!	!	!	!	!
.	.	.	.	24ee\	.	.	.	.	.
!	!	!	!	!LO:N:vis=48	!	!	!	!	!
.	.	.	.	24dd\JJJJ	.	.	.	.	.
!	!	!	!	!	!	!	!	!LO:LB:g=original	!
=46	=46	=46	=46	=46	=46	=46	=46	=46	=46
4G\	.	8b\L	.	8dd\L	.	8r	.	8r	.
.	.	8gg\	.	8bb\	.	(8b\L	sors	(8gg\L	sors
4A\	.	8ff#\	.	8aa\	.	8a\J)	.	8ff#\J)	.
.	.	8ee\J	.	8gg\J	.	8g\	sa-	8ee\	sa-
!	!	!	!	!LO:LB:g=original	!	!	!	!	!
=47	=47	=47	=47	=47	=47	=47	=47	=47	=47
!	!	!	!	!	!	!	!	!LO:TX:a:t=P:problem:takty 47-48 zapisane repetycją	!
4B\	.	4dd\	.	4ff#\	.	4f#\	-lu-	8cc\Lyy	.
!	!	!	!	!	!	!	!	!LO:TUP:a:problem:klamra łukowa	!
.	.	.	.	.	.	.	.	24ff#\Lyy	-lu-
.	.	.	.	.	.	.	.	24ee\yy	.
.	.	.	.	.	.	.	.	24dd\JJyy	.
4F#\	.	4a\	.	8r	.	4a\	-tis	4dd\yy	-tis
.	.	.	.	24ff#\LL	.	.	.	.	.
.	.	.	.	24ee\	.	.	.	.	.
.	.	.	.	24dd\JJ	.	.	.	.	.
!	!	!	!	!	!	!	!	!LO:LB:g=original	!
=48	=48	=48	=48	=48	=48	=48	=48	=48	=48
4G\	.	8b\L	.	8dd\L	.	8r	.	8ryy	.
.	.	8gg\	.	8bb\	.	(8b\L	sors	(8gg\Lyy	sors
4A\	.	8ff#\	.	8aa\	.	8a\J)	.	8ff#\J)yy	.
.	.	8ee\J	.	8gg\J	.	8g\	sa-	8ee\yy	sa-
=49	=49	=49	=49	=49	=49	=49	=49	=49	=49
4B\	.	8dd\	.	8ff#\	.	4.f#/	-lu-	8dd\L	.
*	*	*	*	*	*	*	*	*Xtuplet	*
.	.	4dd\	.	4ff#\	.	.	.	24ff#\L	-lu-
.	.	.	.	.	.	.	.	24ee\	.
.	.	.	.	.	.	.	.	24dd\JJ	.
4A\	.	.	.	.	.	.	.	8dd\L	.
.	.	8dd\	.	8ff#\	.	8f#/	-tis	24ff#\L	-tis
.	.	.	.	.	.	.	.	24ee\	.
.	.	.	.	.	.	.	.	24dd\JJ	.
!	!	!	!	!	!	!LO:LB:g=original	!	!	!
=50	=50	=50	=50	=50	=50	=50	=50	=50	=50
4G#X\	.	8dd\	.	8ff#\	.	4.f#/	ae-	8dd\L	.
.	.	4ff#\	.	4ddd\	.	.	.	24ff#\L	ae-
.	.	.	.	.	.	.	.	24ee\	.
.	.	.	.	.	.	.	.	24dd\JJ	.
4G#\	.	.	.	.	.	.	.	8dd\L	.
.	.	8dd\	.	8ff#\	.	8f#/	-vi-	24ff#\L	-vi-
.	.	.	.	.	.	.	.	24ee\	.
.	.	.	.	.	.	.	.	24dd\JJ	.
=51	=51	=51	=51	=51	=51	=51	=51	=51	=51
4A\	.	8dd\L	.	8ff#\L	.	8f#/	-ter-	8dd\	-ter-
.	.	8cc#X\J	.	8ee\J	.	8e/	-nae	8cc#X\	-nae
4r	.	4r	.	4r	.	4r	.	4r	.
=52	=52	=52	=52	=52	=52	=52	=52	=52	=52
!	!	!	!LO:DY:t=forte	!	!LO:DY:a	!	!	!	!
4C#X/	f	16ee\LL	f	16ee\LL	f	2r	.	(16ee\LL	In
.	.	16g\JJ	.	16g\JJ	.	.	.	16g\JJ)	.
.	.	4g\	.	4g\	.	.	.	4g\	.
4C#/	p	.	.	.	.	.	.	.	.
!	!	!	!LO:DY:a	!	!LO:DY:t=piano	!	!	!	!
.	.	16ee\LL	p	16ee\LL	p	.	.	8g\	te
.	.	16g\JJ	.	16g\JJ	.	.	.	.	.
!	!	!LO:LB:g=original	!	!	!	!	!	!	!
=53	=53	=53	=53	=53	=53	=53	=53	=53	=53
4D/	.	16f#\LL	.	(16f#\LL	.	4.f#/	in	(16f#\LL	so-
.	.	16dd\JJ	.	16dd\JJ	.	.	.	16dd\JJ)	.
.	.	4f#/	.	4a/)	.	.	.	4a\	.
4C#X/	.	.	.	.	.	.	.	.	.
.	.	8e/	.	8g/	.	8e/	te	8g\	-lo
=54	=54	=54	=54	=54	=54	=54	=54	=54	=54
4D/	.	8d/	.	(16f#\LL	.	8d/	spon-	(16f#\LL	spon-
.	.	.	.	16dd\JJ	.	.	.	16dd\JJ)	.
.	.	4f#/	.	4a/)	.	4f#/	.	4a\	.
4C#X/	.	.	.	.	.	.	.	.	.
.	.	8e/	.	8g/	.	8e/	-so	8g\	-so
=55	=55	=55	=55	=55	=55	=55	=55	=55	=55
8D\L	.	16.d/LL	.	16.f#/LL	.	4.d/	me-	16.f#\LL	.
.	.	32a/JK	.	32a/JK	.	.	.	32a\JK	.
8F#\	.	8a/J	.	8a/J	.	.	.	8a\J	me-
!	!	!	!	!	!	!	!	!LO:LB:g=original	!
8G\	.	8d/L	.	16.b\LL	.	.	.	16.b\LL	.
.	.	.	.	32cc#X\JK	.	.	.	32cc#X\JK	.
8E\J	.	8g/J	.	8cc#\J	.	8g/	.	8cc#\J	.
!LO:LB:g=original	!	!	!	!LO:LB:g=original	!	!	!	!	!
=56	=56	=56	=56	=56	=56	=56	=56	=56	=56
4D\	.	8f#/	.	8dd\	.	4f#/	-o	8dd\	-o
.	.	8r	.	8r	.	.	.	8r	.
8r	.	8.ee\L	.	8.ee\L	.	8r	.	8.ee\L	sors
8G\	.	.	.	.	.	(8g\	sors	.	.
.	.	32ff#\LL	.	32ff#\LL	.	.	.	32ff#\LL	.
.	.	32gg\JJJ	.	32gg\JJJ	.	.	.	32gg\JJJ	.
=57	=57	=57	=57	=57	=57	=57	=57	=57	=57
4A\	.	8.ff#\L	.	8.ff#\L	.	8a\)	.	8.ff#\L	.
.	.	.	.	.	.	8a\	sa-	.	.
.	.	32gg\LL	.	32gg\LL	.	.	.	32gg\LL	sa-
.	.	32aa\JJJ	.	32aa\JJJ	.	.	.	32aa\JJJ	.
4AA/	.	8.cc#X\L	.	8.cc#X\L	.	4aT\	-lu-	8.cc#X\L	.
.	.	32dd\LL	.	32dd\LL	.	.	.	32dd\LL	-lu-
.	.	32ee\JJJ	.	32ee\JJJ	.	.	.	32ee\JJJ	.
=58	=58	=58	=58	=58	=58	=58	=58	=58	=58
4BB/	.	8dd\	.	8dd\	.	4b\	-tis	8dd\	-tis
.	.	8r	.	8r	.	.	.	8r	.
!	!	!	!LO:DY:t=forte	!	!LO:DY:t=forte	!	!	!	!
8r	.	8.ee\L	f	8.ee\L	f	8r	.	8.ee\	e-
8G\	.	.	.	.	.	8b\	ae-	.	.
.	.	32ff#\LL	.	32ff#\LL	.	.	.	32ff#\LLL	-vi-
.	.	32gg\JJJ	.	32gg\JJJ	.	.	.	32gg\JJJ	.
=59	=59	=59	=59	=59	=59	=59	=59	=59	=59
*	*	*	*	*tuplet	*	*	*	*	*
!	!LO:DY:t=Pia&colon;	!LO:TUP:a:problem:klamra łukowa	!	!LO:TUP:a:problem:klamra łukowa	!	!	!	!	!
4A\	p	24ff#\LL	.	24ff#\LL	.	4dd\	.	24ff#\LL	.
.	.	24ee\	.	24ee\	.	.	.	24ee\	.
.	.	24dd\JJ	.	24dd\JJ	.	.	.	24dd\JJ	-ter-
!	!	!LO:TUP:a:problem:klamra łukowa	!	!LO:TUP:a:problem:klamra łukowa	!	!	!	!	!
.	.	24cc#X\LL	.	24cc#X\LL	.	.	.	24cc#X\LL	.
.	.	24b\	.	24b\	.	.	.	24b\	.
.	.	24a\JJ	.	24a\JJ	.	.	.	24a\JJ	.
!	!LO:DY:t=for&colon;	!	!	!	!	!	!	!	!
4AA/	f	4ee\	.	4ee\	.	4cc#X\	-ter-	4ee\	.
=60	=60	=60	=60	=60	=60	=60	=60	=60	=60
4d\	.	(8ff#\	.	8aa\	.	4a\	-nae	4dd\	-nae
.	.	4dd\	.	4ff#\	.	.	.	.	.
4d\	.	.	.	.	.	4r	.	4r	.
.	.	8ee\)	.	8gg\	.	.	.	.	.
=61	=61	=61	=61	=61	=61	=61	=61	=61	=61
!	!	!	!	!	!	!LO:TX:a:t=5	!	!	!
!	!	!	!	!	!	!LO:N:vis=00	!	!LO:N:vis=00	!
4d\	.	(8ff#\	.	16aa\LL	.	0r	.	0r	.
.	.	.	.	16ccc#X\JJ	.	.	.	.	.
.	.	4ff#\)	.	4ddd\	.	.	.	.	.
4d\	.	.	.	.	.	.	.	.	.
.	.	8gg\	.	8bb\	.	.	.	.	.
=62	=62	=62	=62	=62	=62	=62	=62	=62	=62
4d\	.	8ff#\	.	8aa\	.	.	.	.	.
.	.	4dd\	.	4ff#\	.	.	.	.	.
4d\	.	.	.	.	.	.	.	.	.
.	.	8ee\	.	8gg\	.	.	.	.	.
!	!	!LO:LB:g=original	!	!	!	!	!	!	!
=63	=63	=63	=63	=63	=63	=63	=63	=63	=63
4d\	.	8ff#\	.	16aa\LL	.	.	.	.	.
.	.	.	.	16ccc#X\JJ	.	.	.	.	.
.	.	4ff#\	.	4ddd\	.	.	.	.	.
4d\	.	.	.	.	.	.	.	.	.
.	.	8gg\	.	8bb\	.	.	.	.	.
=64	=64	=64	=64	=64	=64	=64	=64	=64	=64
4d\	.	8ff#\L|	.	8aa\L	.	.	.	.	.
!	!	!LO:TUP:a:problem:klamra łukowa	!	!LO:TUP:a:problem:klamra łukowa	!	!	!	!	!
.	.	24dd\L	.	24ff#\L	.	.	.	.	.
.	.	24ee\	.	24gg\	.	.	.	.	.
.	.	24ff#\JJ	.	24aa\JJ	.	.	.	.	.
4A\	.	4ee\	.	4gg\	.	.	.	.	.
!	!	!	!	!LO:LB:g=original	!	!	!	!	!
=65	=65	=65	=65	=65	=65	=65	=65	=65	=65
4D\	.	4ee\	.	(4gg\	.	2r	.	2r	.
4r	.	8dd\	.	8ff#\)	.	.	.	.	.
.	.	8r	.	8r	.	.	.	.	.
!	!	!	!	!	!	!LO:LB:g=original	!	!	!
=66	=66	=66	=66	=66	=66	=66	=66	=66	=66
!	!	!	!LO:DY:b:t=piano	!	!LO:DY:a	!	!	!	!
4G\	.	8b/	p	(8dd\	p	(8b\	in	(8dd\	In
.	.	4g/	.	4b\	.	4g\)	.	4b\)	.
4G\	.	.	.	.	.	.	.	.	.
.	.	8a/	.	8cc\)	.	8a\	te	8cc\	te
=67	=67	=67	=67	=67	=67	=67	=67	=67	=67
4G\	.	(8b\	.	(16dd\LL	.	4.b\	Cre-	(16dd\LL	cre-
.	.	.	.	16ff#\JJ	.	.	.	16ff#\JJ)	.
.	.	4b\	.	4gg\)	.	.	.	4gg\	.
4G\	.	.	.	.	.	.	.	.	.
.	.	8cc\)	.	8ee\	.	8cc\	-do	8ee\	-do
!	!	!	!	!	!	!	!	!LO:LB:g=original	!
=68	=68	=68	=68	=68	=68	=68	=68	=68	=68
4G\	.	(>8b/	.	8dd\	.	(8b\	spon-	(8dd\	spon-
.	.	4g/	.	4b\	.	4g\)	.	4b\)	.
4G\	.	.	.	.	.	.	.	.	.
.	.	8a/)	.	8cc\	.	8a\	-se	8cc\	-se
=69	=69	=69	=69	=69	=69	=69	=69	=69	=69
4G\	.	(8b\	.	16dd\LL	.	4.b\	a-	(16dd\LL	a-
.	.	.	.	16ff#\JJ	.	.	.	16ff#\JJ)	.
.	.	4b\	.	4gg\	.	.	.	4gg\	.
4G\	.	.	.	.	.	.	.	.	.
.	.	8cc\)	.	8ee\	.	8cc\	.	8ee\	.
=70	=70	=70	=70	=70	=70	=70	=70	=70	=70
4G\	.	8b/L	.	8dd\L	.	8b\L	.	8dd\L	.
*	*	*	*	*	*	*	*	*tuplet	*
!	!	!LO:TUP:b:problem:klamra łukowa	!	!LO:TUP:a:problem:klamra łukowa	!	!LO:TUP:a:problem:klamra łukowa	!	!LO:TUP:a:problem:klamra łukowa	!
.	.	24g/L	.	24b\L	.	24g\L	-ma-	24b\L	.
.	.	24a/	.	24cc\	.	24a\	.	24cc\	-m-
.	.	24b/JJ	.	24dd\JJ	.	24b\JJ	.	24dd\JJ	.
4D\	.	4a/	.	4cc\	.	4a\	.	4cc\	-a-
=71	=71	=71	=71	=71	=71	=71	=71	=71	=71
4GG/	.	8g/L	.	8b\L|	.	4g\	-te	4b\	-te
*	*	*	*	*Xtuplet	*	*	*	*	*
!	!	!LO:TUP:b:problem:klamra łukowa	!	!LO:TUP:a:problem:klamra łukowa	!	!	!	!	!
.	.	24g/L	.	24b\L	.	.	.	.	.
.	.	24a/	.	24cc\	.	.	.	.	.
.	.	24b/JJ	.	24dd\JJ	.	.	.	.	.
4r	.	8b\L	.	8dd\L|	.	4r	.	4r	.
!	!	!LO:TUP:a:problem:klamra łukowa	!	!LO:TUP:a:problem:klamra łukowa	!	!	!	!	!
.	.	24b\L	.	24dd\L	.	.	.	.	.
.	.	24cc\	.	24ee\	.	.	.	.	.
.	.	24dd\JJ	.	24ffn\JJ	.	.	.	.	.
!LO:LB:g=original	!	!	!	!	!	!	!	!	!
=72	=72	=72	=72	=72	=72	=72	=72	=72	=72
4BB/	.	8dd\	.	(8ff#\	.	(8dd\L	spe-	(8ffn\	spe-
.	.	4g/	.	4ee\	.	8g\J)	.	4ee\)	.
4BB/	.	.	.	.	.	4g\	-ro	.	.
.	.	8g/	.	8dd#X\)	.	.	.	8dd#X\	-ro
!	!	!LO:LB:g=original	!	!	!	!	!	!	!
=73	=73	=73	=73	=73	=73	=73	=73	=73	=73
4C/	.	4g/	.	4dd#X\	.	4.g\	a	4dd#X\	a
4C/	.	4g/	.	(8ee\L	.	.	.	(8ee\L	te
.	.	.	.	8cc\J)	.	8g\	te	8cc\J)	.
=74	=74	=74	=74	=74	=74	=74	=74	=74	=74
4C#X/	.	4e/	.	(8a\	.	4.e/	sor-	(8a\	sor-
.	.	.	.	4ee\	.	.	.	4ee\)	.
4C#/	.	4e/	.	.	.	.	.	.	.
.	.	.	.	8g/)	.	8e/	-tem	8g\	-tem
=75	=75	=75	=75	=75	=75	=75	=75	=75	=75
8.D\L	.	4A/	.	8g/L	.	8e/	me-	8g\	me-
.	.	.	.	8f#/J	.	8d/	-am	8f#\	-am
!	!LO:DY:a	!	!	!	!	!	!	!	!
16E\K	f	.	.	.	.	.	.	.	.
8.D\	.	4r	.	4r	.	4r	.	4r	.
16Cn\Jk	.	.	.	.	.	.	.	.	.
!	!	!	!	!LO:LB:g=original	!	!LO:LB:g=original	!	!	!
=76	=76	=76	=76	=76	=76	=76	=76	=76	=76
!	!LO:DY:t=Pia&colon;	!	!	!	!	!	!	!	!
4BB/	p	8dd\	.	8ffn\	.	8dd\L	sor-	8ffn\	sor-
.	.	4g/	.	4ee\	.	8g\J	.	4ee\	.
4BB/	.	.	.	.	.	4g\	-tem	.	.
.	.	8g/	.	8dd#X\	.	.	.	8dd\	-tem
=77	=77	=77	=77	=77	=77	=77	=77	=77	=77
*	*	*	*	*	*	*	*ij	*	*
4C/	.	4g/	.	4dd\	.	4.g\	sor-	4dd\	me-
4C/	.	4g/	.	(8ee\L	.	.	.	(8ee\L	-am
.	.	.	.	8cc\J)	.	8g\	-tem	8cc\J)	.
*	*	*	*	*	*	*	*Xij	*	*
!	!	!	!	!	!	!	!	!LO:LB:g=original	!
=78	=78	=78	=78	=78	=78	=78	=78	=78	=78
4C#X/	.	4e/	.	8a\	.	4.e/	be-	(8a\	Be-
.	.	.	.	4ee\	.	.	.	4ee\)	.
4C#/	.	4e/	.	.	.	.	.	.	.
.	.	.	.	8g/	.	8e/	.	8g\	.
=79	=79	=79	=79	=79	=79	=79	=79	=79	=79
!	!	!	!LO:DY:t=forte	!	!LO:DY:a	!	!	!	!
4D\	.	8A/L	f	8g/L	f	8e/	-a-	8g\	-a-
*	*	*	*	*tuplet	*	*	*	*	*
!	!	!LO:TUP:b:problem:klamra łukowa	!	!LO:TUP:b:problem:klamra łukowa	!	!	!	!	!
.	.	24d/L	.	24g/L	.	8d/	-tam	8f#\	-tam
.	.	24e/	.	24a/	.	.	.	.	.
.	.	24f#/JJ	.	24b/JJ	.	.	.	.	.
4D\	.	8f#/L|	.	8a/L	.	4r	.	4r	.
!	!	!LO:TUP:b:problem:klamra łukowa	!	!LO:TUP:b:problem:klamra łukowa	!	!	!	!	!
.	.	24g/L	.	24a/L	.	.	.	.	.
.	.	24a/	.	24b/	.	.	.	.	.
.	.	24b/JJ	.	24cc/JJ	.	.	.	.	.
=80	=80	=80	=80	=80	=80	=80	=80	=80	=80
!	!	!	!	!	!LO:DY:a	!	!	!	!
4D\	.	16b/LL	.	16dd\LL	p	16b\LL	so-	(16dd\LL	So-
.	.	16a/JJ	.	16cc\JJ	.	16a\JJ	.	16cc\JJ)	.
.	.	4a/	.	4cc\	.	4a\	.	[4.ccT\	-lo
4D\	.	.	.	.	.	.	.	.	.
.	.	(16cc\LL	.	16aa\LL	.	(16cc\LL	-lo	.	.
.	.	16a\JJ)	.	16cc\JJ	.	16a\JJ)	.	.	.
=81	=81	=81	=81	=81	=81	=81	=81	=81	=81
4D\	.	16a/LL	.	16cc\LL	.	(16a\LL	in	16cc\LL]	.
.	.	16g/JJ	.	16b\JJ	.	16g\JJ)	.	16b\JJ	in
.	.	4g/	.	4b\	.	4g\	.	4.bt\	te
4D\	.	.	.	.	.	.	.	.	.
.	.	16b/LL	.	16dd\LL	.	(16b\LL	te	.	.
.	.	16g/JJ	.	16b\JJ	.	16g\JJ)	.	.	.
=82	=82	=82	=82	=82	=82	=82	=82	=82	=82
4D\	.	16b/LL	.	(16gg\LL	.	(16b\LL	sa-	16gg\LL	Sa-
.	.	16g/JJ	.	16b\JJ	.	16g\JJ)	.	16b\JJ	.
.	.	4g/	.	4b\)	.	4g\	.	4b\	.
4D\	.	.	.	.	.	.	.	.	.
.	.	16b/LL	.	16ee\LL	.	(16b\LL	-lus	8dd\	.
.	.	16g/JJ	.	16b\JJ	.	16g\JJ)	.	.	.
=83	=83	=83	=83	=83	=83	=83	=83	=83	=83
4D\	.	(16g/LL	.	(16b\LL	.	16g\LL	sa-	(16b\LL	.
.	.	16f#/JJ)	.	16a\JJ	.	16f#\JJ	.	16a\JJ)	.
.	.	4f#/	.	4a\)	.	4.f#\	.	4a\	.
4C\	.	.	.	.	.	.	.	.	.
.	.	8f#/	.	8dd\	.	.	.	8dd\	.
!	!	!LO:LB:g=original	!	!	!	!	!	!	!
=84	=84	=84	=84	=84	=84	=84	=84	=84	=84
4BB/	.	4d/	.	8.g/L	.	4d/	.	(8.g\L	.
.	.	.	.	32f#/LL	.	.	.	32f#\LL	.
.	.	.	.	32g/JJJ	.	.	.	32g\JJJ)	.
!	!	!	!	!	!	!LO:LB:g=original	!	!	!
8AA/L	.	8f#/L	.	8cc\L	.	8f#/L	-lus	8cc\	.
8GG/J	.	8g/J	.	8b\J	.	8g/J	.	8b\	-lus
=85	=85	=85	=85	=85	=85	=85	=85	=85	=85
4D\	.	8r	.	8r	.	8g/	me-	8b\	me-
*	*	*	*	*Xtuplet	*	*	*	*	*
!	!	!LO:TUP:b:problem:klamra łukowa	!	!	!	!	!	!	!
.	.	24d/LL	.	24f#/LL	.	8f#/	-a	8a\	-a
.	.	24e/	.	24g/	.	.	.	.	.
.	.	24f#/JJ	.	24a/JJ	.	.	.	.	.
4D\	.	8f#/L|	.	8a\L	.	8r	.	8r	.
*	*	*	*	*tuplet	*	*	*	*	*
!	!	!LO:TUP:b:problem:klamra łukowa	!	!LO:TUP:a:problem:klamra łukowa	!	!	!	!	!
.	.	24f#/L	.	24a\L	.	8a\	in	8dd\	in
.	.	24g/	.	24b\	.	.	.	.	.
.	.	24a/JJ	.	24cc\JJ	.	.	.	.	.
!	!	!	!	!LO:LB:g=original	!	!	!	!	!
=86	=86	=86	=86	=86	=86	=86	=86	=86	=86
4D\	.	8g/	.	(16b\LL	.	8g\	.	8dd\	te
.	.	.	.	16dd\JJ	.	.	.	.	.
!	!	!	!	!	!	!	!	!LO:LB:g=original	!
.	.	4b\	.	4gg\)	.	4b\	.	4gg\	.
4D\	.	.	.	.	.	.	.	.	.
.	.	8g/	.	8b\	.	8g\	te	8b\	.
=87	=87	=87	=87	=87	=87	=87	=87	=87	=87
4D\	.	16g/LL	.	16b\LL	.	(16g\LL	so-	8b\	in
.	.	16f#/JJ	.	16a\JJ	.	16f#\JJ	.	.	.
.	.	4a/	.	4cc\	.	8a\)	-lo	8a\	te
4D\	.	.	.	.	.	(8a\L	spon-	8r	.
.	.	16g/LL	.	16b\LL	.	16g\L	.	8dd\	spon-
.	.	16f#/JJ	.	16a\JJ	.	16f#\JJ)	.	.	.
!LO:LB:g=original	!	!	!	!	!	!	!	!	!
=88	=88	=88	=88	=88	=88	=88	=88	=88	=88
4D\	.	8g/	.	16b\LL	.	8g\	.	8dd\	.
.	.	.	.	16dd\JJ	.	.	.	.	.
.	.	4b\	.	4gg\	.	4b\	.	4gg\	.
4D\	.	.	.	.	.	.	.	.	.
.	.	8g/	.	8b\	.	8g\	-so	8b\	-so
=89	=89	=89	=89	=89	=89	=89	=89	=89	=89
4D\	.	16g/LL	.	16b\LL	.	(16g\LL	me-	8b\	me-
.	.	16f#/JJ	.	16a\JJ	.	16f#\JJ)	.	.	.
.	.	4a/	.	4cc\	.	8a\	-a	8a\	-o
4D\	.	.	.	.	.	4r	.	4r	.
.	.	16g/LL	.	16b\LL	.	.	.	.	.
.	.	16f#/JJ	.	16a\JJ	.	.	.	.	.
=90	=90	=90	=90	=90	=90	=90	=90	=90	=90
4BB/	.	4g/	.	8dd\	.	4.g\	sorſ	4dd\	sors-
.	.	.	.	4dd\	.	.	.	.	.
4BB/	.	4g/	.	.	.	.	.	8.dd\L	.
.	.	.	.	8ffn\	.	8g\	sa-	.	.
.	.	.	.	.	.	.	.	32ee\LL	-sa-
.	.	.	.	.	.	.	.	32ffn\JJJ	.
=91	=91	=91	=91	=91	=91	=91	=91	=91	=91
!	!	!	!	!	!	!	!	!LO:TUP:a:problem:klamra łukowa	!
4C/	.	4g/	.	8ee\	.	4.g\	-lu-	24ee\LL	-lu-
.	.	.	.	.	.	.	.	24dd\	.
.	.	.	.	.	.	.	.	24cc\JJ	.
!	!	!	!	!	!	!	!	!LO:TUP:a:problem:klamra łukowa	!
.	.	.	.	8r	.	.	.	24b\LL	.
.	.	.	.	.	.	.	.	24a\	.
.	.	.	.	.	.	.	.	24g\JJ	.
!	!	!	!	!LO:TUP:a:problem:klamra łukowa	!	!	!	!	!
4C/	.	4g/	.	24ee\LL	.	.	.	8ee\	-tis
.	.	.	.	24dd\	.	.	.	.	.
.	.	.	.	24cc\JJ	.	.	.	.	.
!	!	!	!	!LO:TUP:a:problem:klamra łukowa	!	!	!	!	!
.	.	.	.	24b\LL	.	8g\	-tis	8r	.
.	.	.	.	24a\	.	.	.	.	.
.	.	.	.	24g\JJ	.	.	.	.	.
=92	=92	=92	=92	=92	=92	=92	=92	=92	=92
4C/	.	4a/	.	8ee\	.	4r	.	8r	.
.	.	.	.	(8gg\L	.	.	.	8gg\L	sors
4C/	.	4a/	.	8ff#\	.	8a\	sors	8ffn\J	.
.	.	.	.	8ee\J)	.	8a\	sa-	8ee\	sa-
!	!	!	!	!	!	!LO:LB:g=original	!	!	!
=93	=93	=93	=93	=93	=93	=93	=93	=93	=93
!	!	!	!	!LO:N:vis=8dd	!	!	!	!LO:TUP:a:problem:klamra łukowa	!
4BB/	.	4a/	.	4dd\	.	8a\	-lu-	24dd\LL	.
.	.	.	.	.	.	.	.	24cc\	.
.	.	.	.	.	.	.	.	24b\JJ	-lu-
!	!	!	!	!	!	!	!	!LO:TUP:a:problem:klamra łukowa	!
.	.	.	.	.	.	8a\	-tis	24a\LL	.
.	.	.	.	.	.	.	.	24g\	.
.	.	.	.	.	.	.	.	24f#\JJ	.
!	!	!	!	!LO:TUP:a:problem:klamra łukowa	!	!	!	!	!
4BB/	.	4a/	.	24dd\LL	.	4r	.	8dd\	-tis
.	.	.	.	24cc\	.	.	.	.	.
.	.	.	.	24b\JJ	.	.	.	.	.
!	!	!	!	!LO:TUP:a:problem:klamra łukowa	!	!	!	!	!
.	.	.	.	24a\LL	.	.	.	8r	.
.	.	.	.	24g\	.	.	.	.	.
.	.	.	.	24f#\JJ	.	.	.	.	.
!	!	!	!	!	!	!	!	!LO:LB:g=original	!
=94	=94	=94	=94	=94	=94	=94	=94	=94	=94
4BB/	.	4g/	.	8dd\|	.	4r	.	8r	.
.	.	.	.	(8ffn\L	.	.	.	8ffn\L	spon-
4BB/	.	4g/	.	8ee\	.	8g\	spon	8ee\J	.
.	.	.	.	8dd\J)	.	8g\	so	8dd\	-so
=95	=95	=95	=95	=95	=95	=95	=95	=95	=95
!	!	!	!	!	!	!	!	!LO:TUP:a:problem:klamra łukowa	!
4AA/	.	4g/	.	8cc\	.	8g\	me-	24cc\LL	.
.	.	.	.	.	.	.	.	24b\	.
.	.	.	.	.	.	.	.	24a\JJ	me-
!	!	!	!	!	!	!	!	!LO:TUP:a:problem:klamra łukowa	!
.	.	.	.	8r	.	8g\	-o	24g\LL	.
.	.	.	.	.	.	.	.	24f#\	.
.	.	.	.	.	.	.	.	24e\JJ	.
!	!	!	!	!LO:LB:g=original	!	!	!	!	!
!	!	!	!	!LO:TUP:a:problem:klamra łukowa	!	!	!	!	!
4AA/	.	4g/	.	24cc\LL	.	4r	.	8cc\	-o
.	.	.	.	24b\	.	.	.	.	.
.	.	.	.	24a\JJ	.	.	.	.	.
!	!	!	!	!LO:TUP:b:problem:klamra łukowa	!	!	!	!	!
.	.	.	.	24g/LL	.	.	.	8r	.
.	.	.	.	24f#/	.	.	.	.	.
.	.	.	.	24e/JJ	.	.	.	.	.
=96	=96	=96	=96	=96	=96	=96	=96	=96	=96
4AA/	.	4f#/	.	8cc\|	.	4r	.	8r	.
.	.	.	.	(8ee\L	.	.	.	8ee\L	in
4AA/	.	4f#/	.	8dd\	.	8f#/	in	8dd\J	.
.	.	.	.	8cc\J)	.	8f#/	te	8cc\	te
!	!	!LO:LB:g=original	!	!	!	!	!	!	!
=97	=97	=97	=97	=97	=97	=97	=97	=97	=97
4G\	.	(8g/	.	(8b\	.	(8g\L	so-	8b\L	spon-
!	!	!	!	!	!	!	!	!LO:TUP:a:problem:klamra łukowa	!
.	.	4b/)	.	4gg\)	.	8b\J)	.	24dd\L	.
.	.	.	.	.	.	.	.	24cc\	.
.	.	.	.	.	.	.	.	24b\JJ	.
4F#\	.	.	.	.	.	(8b\L	-lo	8gg\L	.
.	.	8g/	.	8b\	.	8g\J)	.	8b\J	-so
=98	=98	=98	=98	=98	=98	=98	=98	=98	=98
4E\	.	8g/	.	(8b\	.	8g\	spon-	8b\	spon-
.	.	(4b/	.	4gg\	.	8b\	-so	24dd\LL	-so
.	.	.	.	.	.	.	.	24cc\	.
.	.	.	.	.	.	.	.	24b\JJ	.
4D\	.	.	.	.	.	8b\	me-	8gg\	me-
.	.	8g/)	.	8b\)	.	8g\	-o	8b\	-o
=99	=99	=99	=99	=99	=99	=99	=99	=99	=99
4C#X/	.	(8g/	.	(8b\	.	(8g\L	sors	(8b\L	.
.	.	4b\	.	4gg\	.	8b\J)	.	24dd\L	sors
.	.	.	.	.	.	.	.	24cc\)	.
.	.	.	.	.	.	.	.	24b\JJ	.
4C#/	.	.	.	.	.	(8b\L	sa-	(8gg\L	.
.	.	8g/)	.	8b\)	.	8g\J)	.	8b\J)	sa-
=100	=100	=100	=100	=100	=100	=100	=100	=100	=100
4D\	.	8g/L	.	8b/L	.	8g\	-lu-	8b\	-lu-
.	.	8f#/J	.	8a/J	.	8f#\	-tis	8a\	-tis
4r	.	4r	.	4r	.	4r	.	4r	.
!	!	!	!	!	!	!LO:LB:g=original	!	!	!
=101	=101	=101	=101	=101	=101	=101	=101	=101	=101
!	!LO:DY:t=for&colon;	!	!	!	!LO:DY:a	!	!	!	!
4F#\	f	8d/L	.	16aa\LL	f	4d/	in	(16aa\LL	in
.	.	.	.	16cc\JJ	.	.	.	16cc\JJ)	.
.	.	8d/	.	4cc\	.	.	.	4.ccT\	te
!	!LO:DY:t=po	!	!	!	!	!	!	!	!
4F#\	p	8d/	.	.	.	4d/	te	.	.
!	!	!	!	!	!LO:DY:t=pian&colon;	!	!	!	!
.	.	8d/J	.	16aa\LL	p	.	.	.	.
.	.	.	.	16cc\JJ	.	.	.	.	.
!	!	!	!	!	!	!	!	!LO:LB:g=original	!
=102	=102	=102	=102	=102	=102	=102	=102	=102	=102
4F#\	.	8b\	.	16b\LL	.	4.b\	so-	16b\LL	so-
.	.	.	.	16gg\JJ	.	.	.	16gg\JJ	.
.	.	4b\	.	4dd\	.	.	.	4dd\	.
4F#\	.	.	.	.	.	.	.	.	.
.	.	8a\	.	8ccT\	.	8a\	-lo	8cc\	-lo
=103	=103	=103	=103	=103	=103	=103	=103	=103	=103
4G\	.	8g/	.	(16b\LL	.	8g\	spon-	(16b\LL	spon-
.	.	.	.	16gg\JJ	.	.	.	16gg\JJ)	.
.	.	4b\	.	4dd\)	.	4b\	.	4dd\	.
4F#\	.	.	.	.	.	.	.	.	.
.	.	8a\	.	8cc\	.	8a\	-so	8ccT\	-so
=104	=104	=104	=104	=104	=104	=104	=104	=104	=104
!	!LO:DY:t=forte	!	!	!	!	!	!	!	!
8G\L	f	16.d/LL	.	16.b\LL	.	8r	.	(16.b\LL	.
.	.	32g/JK	.	32dd\JK	.	.	.	32dd\JK)	.
16A\L	.	8g/J	.	8ddT\J	.	8g\	me-	8ddT\J	me-
16B\JJ	.	.	.	.	.	.	.	.	.
8c\L	.	16.g/LL	.	16.ee\LL	.	8a\L	.	(16.ee\LL	.
.	.	32cc/JK	.	32ff#\JK	.	.	.	32ff#\JK)	.
8A\J	.	8cc/J	.	8ff#t\J	.	8cc\J	.	8ff#t\J	.
!LO:LB:g=original	!	!	!	!	!	!	!	!	!
=105	=105	=105	=105	=105	=105	=105	=105	=105	=105
!	!LO:DY:t=Piar	!	!	!	!	!	!	!	!
4G\	p	8b\	.	8gg\	.	8b\	-o	8gg\	-o
.	.	8r	.	8r	.	8r	.	8r	.
8r	.	8.a\L	.	8.a\L	.	8r	.	(8.a\L	.
8C/	.	.	.	.	.	(8cc\	sors	.	.
.	.	32b\LL	.	32b\LL	.	.	.	32b\LL	sors
.	.	32cc\JJJ	.	32cc\JJJ	.	.	.	32cc\JJJ)	.
!	!	!	!	!LO:LB:g=original	!	!	!	!	!
=106	=106	=106	=106	=106	=106	=106	=106	=106	=106
4D\	.	8.b\L	.	(8.b\L	.	8dd\)	.	(8.b\L	.
.	.	.	.	.	.	8dd\	sa-	.	.
.	.	32cc\LL	.	32cc\LL	.	.	.	32cc\LL	sa-
.	.	32dd\JJJ	.	32dd\JJJ)	.	.	.	32dd\JJJ)	.
4DD/	.	8.f#/L	.	(8.f#\L	.	4dd\	-lu-	(8.f#\L	.
.	.	32g/LL	.	32g\LL	.	.	.	32g\LL	-lu-
.	.	32a/JJJ	.	32a\JJJ)	.	.	.	32a\JJJ)	.
!	!	!LO:LB:g=original	!	!	!	!	!	!	!
=107	=107	=107	=107	=107	=107	=107	=107	=107	=107
4DD/	.	8g/	.	8g/	.	4ee\	-tis	8g\	-tis
.	.	8r	.	8r	.	.	.	8r	.
!	!	!	!LO:DY:t=forte	!	!LO:DY:a	!	!	!	!
8r	.	8.ee\L	f	8.ee\L	f	8r	.	8.ee\L	.
8c\	.	.	.	.	.	(8cc\	sors	.	.
.	.	32ff#\LL	.	32ff#\LL	.	.	.	32ff#\LL	sors
.	.	32gg\JJJ	.	32gg\JJJ	.	.	.	32gg\JJJ	.
=108	=108	=108	=108	=108	=108	=108	=108	=108	=108
!	!	!	!LO:DY:a	!	!LO:DY:a	!	!	!	!
4d\	.	8.b\L	p	(8.b\L	p	8dd\)	.	(8.b\L	.
.	.	.	.	.	.	8dd\	sa-	.	.
.	.	32cc\LL	.	32cc\LL)	.	.	.	32cc\LL)	sa-
.	.	32dd\JJJ	.	32dd\JJJ	.	.	.	32dd\JJJ	.
4D/	.	8.f#/L	.	8.f#/L|	.	4dd\	-lu-	8.f#\L	.
.	.	32g/LL	.	(32g/LL	.	.	.	32g\LL	-lu-
.	.	32a/JJJ	.	32a/JJJ)	.	.	.	32a\JJJ	.
=109	=109	=109	=109	=109	=109	=109	=109	=109	=109
!	!LO:DY:a	!	!LO:DY:t=fore	!	!LO:DY:a	!	!	!	!
8G\L	f	16.g\LL	f	16.g\LL	f	8g\	-tis	8g\	-tis
.	.	32gg\JK	.	32gg\JK	.	.	.	.	.
8F#\	.	8gg\J	.	8gg\J	.	8r	.	8r	.
8E\	.	16.bb\LL	.	16.bb\LL	.	4r	.	4r	.
.	.	32gg\JK	.	32gg\JK	.	.	.	.	.
8D\J	.	8gg\J	.	8gg\J	.	.	.	.	.
!	!	!	!	!	!	!LO:LB:g=original	!	!LO:LB:g=original	!
=110	=110	=110	=110	=110	=110	=110	=110	=110	=110
4C#X/	.	16.bb\LL	.	16.bb\LL	.	(8g\L	ae-	4gg\	ae-
.	.	32gg\JK	.	32gg\JK	.	.	.	.	.
.	.	8gg\J	.	8ggT\J	.	8b\J)	.	.	.
4C#/	.	16.bb\LL	.	16.bb\LL	.	(8g\L	-vi-	4gg\	-vi-
.	.	32gg\JK	.	32gg\JK	.	.	.	.	.
.	.	8gg\J	.	8gg\J	.	8b\J)	.	.	.
=111	=111	=111	=111	=111	=111	=111	=111	=111	=111
!	!	!	!	!	!	!LO:TX:a:t=P:problem:mixed beam	!	!	!
4D\	.	4d/	.	4d/	.	8dd\L	.	(8gg\L	-ter-
.	.	.	.	.	.	8d\J	-ter-	8g\J)	.
4r	.	4r	.	4r	.	8d/L	.	4a\	.
.	.	.	.	.	.	(16e/L	.	.	.
.	.	.	.	.	.	16f#/JJ)	.	.	.
=112	=112	=112	=112	=112	=112	=112	=112	=112	=112
!	!	!	!	!	!LO:DY:a	!	!	!	!
4G\	.	8b/	.	8dd\	f	4g\	-nae	4g\	-nae
.	.	4g/	.	4b\	.	.	.	.	.
4G\	.	.	.	.	.	4r	.	4r	.
.	.	8a/	.	8cc\	.	.	.	.	.
=113	=113	=113	=113	=113	=113	=113	=113	=113	=113
!	!	!	!	!	!	!	!	!LO:TX:a:t=16	!
!	!	!	!	!	!	!LO:N:vis=00	!	!LO:N:vis=00	!
4G\	.	(8b\	.	(16dd\LL	.	0r	.	0r	.
.	.	.	.	16ff#\JJ	.	.	.	.	.
.	.	4b\	.	4gg\)	.	.	.	.	.
4G\	.	.	.	.	.	.	.	.	.
.	.	8cc\)	.	8ee\	.	.	.	.	.
=114	=114	=114	=114	=114	=114	=114	=114	=114	=114
4G\	.	(8b\	.	8dd\	.	.	.	.	.
.	.	4g/	.	4b\	.	.	.	.	.
4G\	.	.	.	.	.	.	.	.	.
.	.	8a/)	.	8cc\	.	.	.	.	.
=115	=115	=115	=115	=115	=115	=115	=115	=115	=115
4G\	.	(8b\	.	(16dd\LL	.	.	.	.	.
.	.	.	.	16ff#\JJ	.	.	.	.	.
.	.	4b\	.	4gg\)	.	.	.	.	.
4G\	.	.	.	.	.	.	.	.	.
.	.	8ccT\)	.	8ee\	.	.	.	.	.
=116	=116	=116	=116	=116	=116	=116	=116	=116	=116
4G\	.	8b/L	.	8dd\L|	.	.	.	.	.
!	!	!LO:TUP:b:problem:klamra łukowa	!	!LO:TUP:a:problem:klamra łukowa, kropka zamiast numeru	!	!	!	!	!
.	.	24g/L	.	24b\L	.	.	.	.	.
.	.	24a/	.	24cc\	.	.	.	.	.
.	.	24b/JJ	.	24dd\JJ	.	.	.	.	.
4G\	.	4a/	.	4ccT\	.	.	.	.	.
!	!	!LO:LB:g=original	!	!LO:LB:g=original	!	!	!	!	!
=117	=117	=117	=117	=117	=117	=117	=117	=117	=117
!LO:TX:a:t=P:problem:mixed beam	!	!	!	!	!	!LO:N:vis=00	!	!LO:N:vis=00	!
8GG/L	.	8g\L	.	16.b\LL	.	0r	.	0r	.
.	.	.	.	32dd\JK	.	.	.	.	.
8B\	.	8g\	.	8dd\J	.	.	.	.	.
8c\	.	8g\	.	16.ee\LL	.	.	.	.	.
.	.	.	.	32ff#\JK	.	.	.	.	.
8A\J	.	8cc\J	.	8ff#t\J	.	.	.	.	.
=118	=118	=118	=118	=118	=118	=118	=118	=118	=118
!LO:TX:a:t=P:problem:mixed beam	!	!LO:TX:a:t=P:problem:mixed beam	!	!LO:TX:a:t=P:problem:mixed beam	!	!	!	!	!
8G\L	.	16.gg\LL	.	16.gg\LL	.	.	.	.	.
.	.	32G/JK	.	32G/JK	.	.	.	.	.
8GG/	.	8G/J	.	8GT/J	.	.	.	.	.
8AA/	.	16.A/LL	.	16.A/LL	.	.	.	.	.
.	.	32B/JK	.	32B/JK	.	.	.	.	.
8BB/J	.	8B/J	.	8Bt/J	.	.	.	.	.
!LO:LB:g=original	!	!	!	!	!	!	!	!	!
=119	=119	=119	=119	=119	=119	=119	=119	=119	=119
!LO:TX:a:t=P:problem:mixed beam	!	!LO:TX:a:t=P:problem:mixed beam	!	!LO:TX:a:t=P:problem:mixed beam	!	!	!	!	!
8C/L	.	16.c/LL	.	16.c/LL	.	.	.	.	.
.	.	32ee\JK	.	32ee\JK	.	.	.	.	.
8c#X\	.	8ee\J	.	8eeT\J	.	.	.	.	.
8d\	.	16.ff#\LL	.	16.ff#\LL	.	.	.	.	.
.	.	32gg#X\JK	.	32gg#X\JK	.	.	.	.	.
8B\J	.	8gg#\J	.	8gg#t\J	.	.	.	.	.
=120	=120	=120	=120	=120	=120	=120	=120	=120	=120
!LO:TX:a:t=P:problem:mixed beam	!	!LO:TX:a:t=P:problem:mixed beam	!	!LO:TX:a:t=P:problem:mixed beam	!	!	!	!	!
8A\L	.	16.aa\LL	.	16.aa\LL	.	.	.	.	.
.	.	32A/JK	.	32A/JK	.	.	.	.	.
8AA/	.	8A/J	.	8AT/J	.	.	.	.	.
8BB/	.	16.B/LL	.	16.B/LL	.	.	.	.	.
.	.	32c#X/JK	.	32c#X/JK	.	.	.	.	.
8C#X/J	.	8c#/J	.	8c#t/J	.	.	.	.	.
=121	=121	=121	=121	=121	=121	=121	=121	=121	=121
!	!	!	!	!	!LO:DY:t=Pia	!LO:N:vis=00	!	!LO:N:vis=00	!
4D\	.	8d/	.	8d/	p	0r	.	0r	.
.	.	8r	.	8r	.	.	.	.	.
8r	.	8.aa\L	.	8.aa\L	.	.	.	.	.
8c\	.	.	.	.	.	.	.	.	.
.	.	32bb\LL	.	32bb\LL	.	.	.	.	.
.	p	32ccc\JJJ	.	32ccc\JJJ	.	.	.	.	.
=122	=122	=122	=122	=122	=122	=122	=122	=122	=122
!	!	!	!LO:DY:b:t=piano	!	!	!	!	!	!
4d\	.	8.bb\L	p	8.bb\L	.	.	.	.	.
.	.	32ccc\LL	.	32ccc\LL	.	.	.	.	.
.	.	32ddd\JJJ	.	32ddd\JJJ	.	.	.	.	.
4D\	.	8.ff#\L	.	8.ff#\L	.	.	.	.	.
.	.	32gg\LL	.	32gg\LL	.	.	.	.	.
.	.	32aa\JJJ	.	32aa\JJJ	.	.	.	.	.
=123	=123	=123	=123	=123	=123	=123	=123	=123	=123
4E\	.	8gg\	.	8gg\	.	.	.	.	.
.	.	8r	.	8r	.	.	.	.	.
8r	.	8.a/L	.	(8.a\L|	.	.	.	.	.
8C/	.	.	.	.	.	.	.	.	.
.	.	32b/LL	.	32b\LL	.	.	.	.	.
.	.	32cc/JJJ	.	32cc\JJJ)	.	.	.	.	.
=124	=124	=124	=124	=124	=124	=124	=124	=124	=124
4D\	.	8.b\L	.	(8.b\L|	.	.	.	.	.
.	.	32cc\LL	.	32cc\LL	.	.	.	.	.
.	.	32dd\JJJ	.	32dd\JJJ)	.	.	.	.	.
4DD/	.	8.f#/L	.	8.f#/L|	.	.	.	.	.
.	.	32g/LL	.	(32g/LL	.	.	.	.	.
.	.	32a/JJJ	.	32a/JJJ)	.	.	.	.	.
=125	=125	=125	=125	=125	=125	=125	=125	=125	=125
!	!	!	!LO:DY:t=forte	!	!	!LO:N:vis=00	!	!LO:N:vis=00	!
8G\L	.	16.g\LL	f	(16.g\LL	.	0r	.	0r	.
.	.	32gg\JK	.	32gg\JK)	.	.	.	.	.
8F#\	.	8gg\J	.	8ggT\J	.	.	.	.	.
!	!	!LO:LB:g=original	!	!	!	!	!	!	!
8E\	.	16.bb\LL	.	16.bb\LL	.	.	.	.	.
.	.	32gg\JK	.	32gg\JK	.	.	.	.	.
8D\J	.	8gg\J	.	8ggT\J	.	.	.	.	.
=126	=126	=126	=126	=126	=126	=126	=126	=126	=126
4C#X/	.	16.bb\LL	.	16.bb\LL	.	.	.	.	.
.	.	32gg\JK	.	32gg\JK	.	.	.	.	.
.	.	8gg\J	.	8gg\J	.	.	.	.	.
!	!	!	!	!LO:LB:g=original	!	!	!	!	!
4C#/	.	16.bb\LL	.	16.bb\LL	.	.	.	.	.
.	.	32gg\JK	.	32gg\JK	.	.	.	.	.
.	.	8gg\J	.	8gg\J	.	.	.	.	.
=127	=127	=127	=127	=127	=127	=127	=127	=127	=127
!	!	!	!	!LO:TUP:a:problem:klamra łukowa	!	!	!	!	!
4D\	.	8g/L	.	24b\LL	.	.	.	.	.
.	.	.	.	24dd\	.	.	.	.	.
.	.	.	.	24cc\JJ	.	.	.	.	.
!	!	!	!	!LO:TUP:a:problem:klamra łukowa	!	!	!	!	!
.	.	8g/	.	24b\LL	.	.	.	.	.
.	.	.	.	24a\	.	.	.	.	.
.	.	.	.	24g\JJ	.	.	.	.	.
4DD/	.	8f#/	.	4a/	.	.	.	.	.
.	.	8f#/J	.	.	.	.	.	.	.
=128	=128	=128	=128	=128	=128	=128	=128	=128	=128
!LO:TX:b:t=104	!	!	!	!	!	!	!	!	!
4GG/	.	8g/L	.	8g/L	.	.	.	.	.
.	.	8d/J	.	8d/J	.	.	.	.	.
4r	.	4G/	.	4G/	.	.	.	.	.
=129||;;	=129||	=129||;;	=129||	=129||;;	=129||	=129||;;	=129||	=129||;;	=129||
!	!LO:DY:a	!	!	!	!LO:DY:a	!	!	!	!
4G\	p	8b/L	.	8dd\L	p	8b\	pro-	8dd\	pro-
.	.	8g/J	.	8b\J	.	8g\	-te	8b\	-te
4G\	.	8.g/L	.	8.b\L	.	8.g\	mo-	8.b\	mo-
!	!	!	!	!	!	!LO:N:vis=16	!	!	!
.	.	32a/LL	.	(32cc\LL	.	(32a\LLL	-ri	32cc\LLL	-ri
!	!	!	!	!	!	!LO:N:vis=16	!	!	!
.	.	32b/JJJ	.	32dd\JJJ)	.	32b\JJJ)	.	32dd\JJJ	.
=130	=130	=130	=130	=130	=130	=130	=130	=130	=130
4D\	.	8a/L	.	8cc\L	.	8a\	vul-	8cc\	cru-
.	.	8f#/J	.	8a\J	.	8f#\	-ne-	8a\	-ci
4D\	.	8.f#/L	.	(8.a\L	.	8.f#\	-ra-	8.a\	a-
!	!	!	!	!	!	!LO:N:vis=16	!	!	!
.	.	32g/LL	.	32b\LL	.	32g\LLL	-ri	32b\LLL	-ri
!	!	!	!	!	!	!LO:N:vis=16	!	!	!
.	.	32a/JJJ	.	32cc\JJJ)	.	32a\JJJ	.	32cc\JJJ	.
=131	=131	=131	=131	=131	=131	=131	=131	=131	=131
4D\	.	8g/	.	8b\	.	(8g\L	cru-	8b\	vul-
.	.	4b\	.	4gg\	.	8b\J)	.	4gg\	.
4D\	.	.	.	.	.	(8b\L	-ci-	.	.
.	.	8g/	.	8b\	.	8g\J)	.	8b\	-lne-
!LO:LB:g=original	!	!	!	!	!	!	!	!	!
=132	=132	=132	=132	=132	=132	=132	=132	=132	=132
8.D/L	.	8g/L	.	8b\L	.	8g/	-a-	8b\	-ra-
.	.	8f#/J	.	8a\J	.	8f#/	-ri	8a\	-ri
16C/K	.	.	.	.	.	.	.	.	.
!	!	!	!	!	!	!LO:LB:g=original	!	!	!
8BB/	.	4r	.	4r	.	4r	.	4r	.
8AA/J	.	.	.	.	.	.	.	.	.
=133	=133	=133	=133	=133	=133	=133	=133	=133	=133
4GG/	.	8dd\L	.	8bb\L	.	8b\	pi-	8dd\	pi-
.	.	8b\J	.	8gg\J	.	8g\	-a	8b\	-a
!	!	!	!	!	!	!	!	!LO:LB:g=original	!
4G\	.	8.b\L	.	8.gg\L	.	8.g\	sem-	8.b\	sem-
!	!	!	!	!	!	!LO:N:vis=16	!	!	!
.	.	32cc\LL	.	32aa\LL	.	(32a\LLL	-per	32cc\LLL	-per
!	!	!	!	!	!	!LO:N:vis=16	!	!	!
.	.	32dd\JJJ	.	32bb\JJJ	.	32b\JJJ)	.	32dd\JJJ	.
=134	=134	=134	=134	=134	=134	=134	=134	=134	=134
4D\	.	8cc\L	.	8aa\L	.	8a\	hae-	8cc\	hae-
.	.	8a\J	.	8ff#\J	.	8f#\	-ret	8a\	-ret
4D\	.	8.a\L	.	(8.ff#\L	.	8.f#\	men-	8.a\	men-
!	!	!	!	!	!	!LO:N:vis=16	!	!	!
.	.	32b\LL	.	32gg\LL	.	(32g\LLL	-ti	32b\LLL	-ti
!	!	!	!	!	!	!LO:N:vis=16	!	!	!
.	.	32cc\JJJ	.	32aa\JJJ)	.	32a\JJJ)	.	32cc\JJJ	.
!	!	!LO:LB:g=original	!	!	!	!	!	!	!
=135	=135	=135	=135	=135	=135	=135	=135	=135	=135
4D\	.	8b\	.	8gg\	.	(8g\L	Te	(8b\L	Te-
.	.	4gg\	.	4bb\	.	8b\J)	.	8gg\J)	.
4D\	.	.	.	.	.	8b\	di-	8gg\	-di-
.	.	8b\	.	8gg\	.	8g\	-li-	8b\	-li
=136	=136	=136	=136	=136	=136	=136	=136	=136	=136
8.D\L	.	8b\L	.	(8gg\L	.	8g\	-gen-	8b\	gen-
.	.	8a\J	.	8ff#\J)	.	8f#\	-ti	8a\	-ti
16E\K	.	.	.	.	.	.	.	.	.
8D\	.	4r	.	4r	.	4r	.	4r	.
8C\J	.	.	.	.	.	.	.	.	.
=137	=137	=137	=137	=137	=137	=137	=137	=137	=137
4BB/	.	4g/	.	8gg\|	.	4.g\	paſ-	8dd\	Paſ-
.	.	.	.	(8dd\L	.	.	.	8dd\	-si-
4BB/	.	4g/	.	8ee\	.	.	.	8ee\	-o-
.	.	.	.	8ffni\J)	.	8g\	-si-	8ffn\	-nem
=138	=138	=138	=138	=138	=138	=138	=138	=138	=138
*	*	*	*	*Xtuplet	*	*	*	*Xtuplet	*
4C\	.	4g/	.	24ee\LL	.	4.g\	-o-	24ee\LL	tu-
.	.	.	.	24dd\	.	.	.	24dd\	.
.	.	.	.	24cc\JJ	.	.	.	24cc\JJ	.
.	.	.	.	4cc\	.	.	.	8cc\	-am
4E\	.	4g/	.	.	.	.	.	8cc\	Je-
!	!	!	!	!LO:LB:g=original	!	!	!	!	!
.	.	.	.	8ee\	.	8g\	-nem	8ee\	-su
=139	=139	=139	=139	=139	=139	=139	=139	=139	=139
*	*	*	*	*tuplet	*	*	*	*tuplet	*
!	!	!	!	!	!	!	!	!LO:TUP:a:problem:klamra łukowa	!
4Fn\	.	4a/	.	24dd\LL	.	4a\	re-	24dd\LL	re-
.	.	.	.	24cc\	.	.	.	24cc\	.
.	.	.	.	24b\JJ	.	.	.	24b\JJ	.
.	.	.	.	4b\	.	.	.	4b\	.
4G\	.	4b/	.	.	.	4b\	-co-	.	.
!	!	!	!	!	!	!	!	!LO:LB:g=original	!
.	.	.	.	8ffn\	.	.	.	8ffn\	-co-
!	!	!	!	!	!	!LO:LB:g=original	!	!	!
=140	=140	=140	=140	=140	=140	=140	=140	=140	=140
8c\L	.	8cc\L	.	8ee\L	.	8cc\	-len-	8ee\	-len-
8G\	.	8b\J	.	8dd\J	.	8b\	-ti	8dd\	-ti
8G\	.	4r	.	4r	.	4r	.	4r	.
8Fn\J	.	.	.	.	.	.	.	.	.
=141	=141	=141	=141	=141	=141	=141	=141	=141	=141
!	!	!	!	!	!	!LO:N:vis=0	!	!	!
4E\	.	8c/L	.	8gg\L	.	1r	.	8cc\	paſ-
.	.	8c/	.	8b-X\	.	.	.	8b-X\	-si-
4E\	.	8c/	.	8a\	.	.	.	8a\L	-o-
.	.	8c/J	.	8g#X\J	.	.	.	8g#X\J	.
=142	=142	=142	=142	=142	=142	=142	=142	=142	=142
!	!	!LO:TX:a:t=P:problem:mixed beam	!	!	!	!	!	!	!
4Fn\	.	8c/L	.	8a\L	.	.	.	4a\	-nem
.	.	8ffn\	.	8ffn\	.	.	.	.	.
4F\	.	8ee\	.	8ee\	.	.	.	4r	.
.	.	8dd\J	.	8dd\J	.	.	.	.	.
!LO:LB:g=original	!	!	!	!	!	!	!	!	!
=143	=143	=143	=143	=143	=143	=143	=143	=143	=143
4F#X\	.	8d/L	.	8aa\L	.	2r	.	8dd\	Tu-
.	.	8d/	.	8cc\	.	.	.	8cc\	-am
4F#\	.	8d/	.	8b\	.	.	.	8b\L	Je-
.	.	8d/J	.	8a\J	.	.	.	8a#X\J	.
=144	=144	=144	=144	=144	=144	=144	=144	=144	=144
!	!	!	!	!LO:TX:a:t=P:problem:mixed beam	!	!	!	!	!
4G\	.	8d/L	.	8b/L	.	4r	.	4b\	-su
.	.	8b/J	.	8gg\J	.	.	.	.	.
4A\	.	4cc\	.	16ffn\LL	.	8r	.	8r	.
.	.	.	.	16ee\	.	.	.	.	.
.	.	.	.	16dd\	.	8cc\	re-	8cc\	re-
.	.	.	.	16cc\JJ	.	.	.	.	.
=145	=145	=145	=145	=145	=145	=145	=145	=145	=145
4Fn\	.	4cc\	.	8.dd\L	.	4cc\	.	8.dd\L	.
.	.	.	.	32ee\LL	.	.	.	32ee\LL	.
.	.	.	.	32ffn\JJJ	.	.	.	32ffn\JJJ	.
4G\	.	4b\	.	4ddT\	.	4b\	-co-	4dd\	-co-
=146	=146	=146	=146	=146	=146	=146	=146	=146	=146
4A\	.	4cc\	.	8cc\	.	4cc\	-len-	8cc\L	.
*	*	*	*	*	*	*	*	*Xtuplet	*
.	.	.	.	8r	.	.	.	24ee\L	-len-
.	.	.	.	.	.	.	.	24dd\	.
.	.	.	.	.	.	.	.	24cc\JJ	.
4E\	.	4g\	.	8r	.	4g\	-ti	4cc\	-ti
!	!	!	!	!LO:TUP:a:problem:klamra łukowa	!	!	!	!	!
.	.	.	.	24ee\LL	.	.	.	.	.
.	.	.	.	24dd\	.	.	.	.	.
.	.	.	.	24cc\JJ	.	.	.	.	.
=147	=147	=147	=147	=147	=147	=147	=147	=147	=147
!	!	!	!	!LO:TX:a:t=P:problem:brak dwóch taktów	!	!	!	!	!
4Fn\	.	8a\L	.	2ryy	.	8r	.	8r	.
.	.	8ffn\	.	.	.	8a\	pi-	8ffn\	pi-
4G\	.	8ee\	.	.	.	8g\	-e	8ee\	-e
!	!	!	!	!	!	!	!	!LO:LB:g=original	!
.	.	8dd\J	.	.	.	8fn/	af-	8dd\	af-
=148	=148	=148	=148	=148	=148	=148	=148	=148	=148
4A\	.	4cc\	.	2ryy	.	4cc\	-fe-	8cc\L	.
!	!	!	!	!	!	!	!	!LO:TUP:a:problem:klamra łukowa	!
.	.	.	.	.	.	.	.	24ee\L	-fe-
.	.	.	.	.	.	.	.	24dd\	.
.	.	.	.	.	.	.	.	24cc\JJ	.
4E\	.	4g\	.	.	.	4g\	-cto	4cc\	-cto
!	!	!LO:LB:g=original	!	!	!	!	!	!	!
=149	=149	=149	=149	=149	=149	=149	=149	=149	=149
4Fn\	.	8a\L	.	8cc\L	.	8r	.	8r	.
.	.	8ffn\	.	8aa\	.	(8a\L	pla-	8ffn\L	pla-
4G\	.	8ee\	.	8gg\	.	8g\	.	8ee\	.
.	.	8dd\J	.	8ffn\J	.	8fn\J)	.	8dd\J	.
=150	=150	=150	=150	=150	=150	=150	=150	=150	=150
!	!	!	!	!	!LO:DY:a	!	!	!	!
8c\L	.	16.ee\LL	.	16.ee\LL	f	(8cc\L	-cet	4cc\	-cet
.	.	32cc\JK	.	32cc\JK	.	.	.	.	.
8B\	.	8cc\J	.	8cc\J	.	8b\J)	.	.	.
8A\	.	16.ee\LL	.	16.eeT\LL	.	(8a\L	pi-	8r	.
.	.	32cc\JK	.	32cc\JK	.	.	.	.	.
8G\J	.	8cc\J	.	8cc\J	.	8g\J)	.	8cc\	pi-
!	!	!	!	!	!	!LO:LB:g=original	!	!	!
=151	=151	=151	=151	=151	=151	=151	=151	=151	=151
4F#X\	.	16.ee\LL	.	16.ee\LL	.	8f#X/	-e	8cc\	-e
.	.	32cc\JK	.	32cc\JK	.	.	.	.	.
.	.	8cc\J	.	8ccT\J	.	8f#/	af-	8cc\	af-
4F#\	.	16.ee\LL	.	16.ee\LL	.	8f#/	-fe-	8cc\	-fe-
.	.	32cc\JK	.	32cc\JK	.	.	.	.	.
.	.	8cc\J	.	8ccT\J	.	8f#/	-cto	8cc\	-cto
=152	=152	=152	=152	=152	=152	=152	=152	=152	=152
4.G\	.	4G/	.	4G/	.	8g/	pla-	8cc\	pla-
.	.	.	.	.	.	8g/	-cet	8cc\	-cet
.	.	4r	.	4r	.	8.g/	Cor-	8.dd\	Cor-
8G\	.	.	.	.	.	.	.	.	.
.	.	.	.	.	.	16g/	-po-	16cc\	-po-
=153	=153	=153	=153	=153	=153	=153	=153	=153	=153
!	!	!LO:TX:a:t=1	!	!LO:TX:a:t=1	!	!	!	!	!
4C/	.	2r	.	2r	.	4c/	-ri	4cc\	-ri
4r	.	.	.	.	.	4r	.	4r	.
!	!	!	!	!LO:LB:g=original	!	!	!	!	!
=154	=154	=154	=154	=154	=154	=154	=154	=154	=154
!	!LO:DY:t=forte	!	!	!	!	!LO:N:vis=00	!	!LO:N:vis=00	!
4F#\	f	8d/L	.	16aa\LL	.	0r	.	0r	.
.	.	.	.	16cc\JJ	.	.	.	.	.
.	.	8d/	.	4cc\	.	.	.	.	.
4F#\	.	8d/	.	.	.	.	.	.	.
.	.	8d/J	.	16aa\LL	.	.	.	.	.
.	.	.	.	16cc\JJ	.	.	.	.	.
!LO:LB:g=original	!	!	!	!	!	!	!	!	!
=155	=155	=155	=155	=155	=155	=155	=155	=155	=155
4G\	.	8b\	.	16b\LL	.	.	.	.	.
.	.	.	.	16gg\JJ	.	.	.	.	.
.	.	4b\	.	4dd\	.	.	.	.	.
4F#\	.	.	.	.	.	.	.	.	.
.	.	8cc\	.	8ccT\	.	.	.	.	.
=156	=156	=156	=156	=156	=156	=156	=156	=156	=156
4G\	.	8b\	.	16b\LL	.	.	.	.	.
.	.	.	.	16gg\JJ	.	.	.	.	.
.	.	4b\	.	4dd\	.	.	.	.	.
4F#\	.	.	.	.	.	.	.	.	.
.	.	8a/	.	8cc\	.	.	.	.	.
=157	=157	=157	=157	=157	=157	=157	=157	=157	=157
8G\L	.	8g/L	.	16.b\LL	.	.	.	.	.
.	.	.	.	32dd\JK	.	.	.	.	.
8B\	.	8g/	.	8ddT\J	.	.	.	.	.
8c\	.	8g/	.	8.ee\L	.	.	.	.	.
8A\J	.	8c/J	.	.	.	.	.	.	.
.	.	.	.	32ff#\LL	.	.	.	.	.
.	.	.	.	32ff#t\JJJ	.	.	.	.	.
=158	=158	=158	=158	=158	=158	=158	=158	=158	=158
*	*	*	*	*Xtuplet	*	*	*	*	*
!	!	!	!	!	!	!LO:N:vis=0	!	!LO:N:vis=0	!
4B\	.	4d/	.	24gg\LL	.	1r	.	1r	.
.	.	.	.	24bb\	.	.	.	.	.
.	.	.	.	24aa\JJ	.	.	.	.	.
.	.	.	.	24gg\LL	.	.	.	.	.
.	.	.	.	24ff#\	.	.	.	.	.
.	.	.	.	24ee\JJ	.	.	.	.	.
8r	.	8r	.	24dd\LL	.	.	.	.	.
.	.	.	.	24gg\	.	.	.	.	.
.	.	.	.	24ff#\JJ	.	.	.	.	.
8C/	.	8g/	.	24ee\LL	.	.	.	.	.
.	.	.	.	24dd\	.	.	.	.	.
.	.	.	.	24cc\JJ	.	.	.	.	.
=159	=159	=159	=159	=159	=159	=159	=159	=159	=159
4D\	.	4g/	.	24b\LL	.	.	.	.	.
.	.	.	.	24dd\	.	.	.	.	.
.	.	.	.	24cc\JJ	.	.	.	.	.
.	.	.	.	24b\LL	.	.	.	.	.
.	.	.	.	24a\	.	.	.	.	.
.	.	.	.	24g\JJ	.	.	.	.	.
4DD/	.	4f#/	.	4a/	.	.	.	.	.
=160	=160	=160	=160	=160	=160	=160	=160	=160	=160
!LO:TX:b:t=82	!	!	!	!	!	!	!	!	!
4GG/	.	8g/L	.	8g/L	.	2r	.	2r	.
.	.	8d/J	.	8d/J	.	.	.	.	.
!	!	!LO:TX:a:t=[segno]:problem:segno na kresce taktowej	!	!LO:TX:a:t=[segno]:problem:segno na kresce taktowej	!	!LO:TX:a:t=[segno]:problem:segno na kresce taktowej	!	!LO:TX:a:t=[segno]:problem:segno na kresce taktowej	!
!LO:TX:b:t=Da Capo al Segno	!	!	!	!LO:TX:b:t=Da Capo al Segno	!	!LO:TX:b:t=160 Da Capo al Segno.	!	!LO:TX:b:t=Da Capo	!
4r	.	4G/	.	4G/	.	.	.	.	.
==	==	==	==	==	==	==	==	==	==
*-	*-	*-	*-	*-	*-	*-	*-	*-	*-
!!!system-decoration: [g1][g2]s5
!!!RDF**kern: i = editorial accidental
!!!RDF**kern: > = above
!!!RDF**kern: < = below
!!!RDF**dynam: p = "Piano"
!!!RDF**dynam: f = "fort:"
!!!AIN: 1 empty 2 violn 2 vox
!!!ENC: Marta Lawrence
!!!END: 2020-08-19
!!!ENC: Berenika Jozajtis
!!!END: 2020-05-30
!!!RDF**kern: | = vertical stroke
